X:1
T:Torni al lido
T:Benedetto Ferrari
T:Source : Musiche Varie a voce sola---Libro terzo---Venetia---B.Magni---1641. Editor : André Vierendeels (13/01/17).
T:Notes  : Original clefs : C1, F4 Editorial accidentals above the staff Original note values have been halved Figures in BC are notated in original print - expanded editorially in m. 13
T:Torni al lido
T:©
T:©
T:©
C:Benedetto Ferrari
Z:©
%%score 1 { 2 | 3 }
L:1/8
Q:1/4=120
M:6/4
K:C
V:1 treble nm="Soprano" snm="S"
V:2 treble nm="MusicXML Part"
V:3 bass 
V:1
 z2 G2 G2 G2 G3 F | E2 C2 GG G2 G3 F | ED E^F GA B2 GGAB | c2 cA Bc TB3 A G2 | z2 z2 GF F4 FE | %5
w: Tor- ni'al li- do'il noc-|chie- ro, tor- ni'al li- do'il noc-|chie- * * * * * * ro che j'a- mo-|ro- so'ar- * * * cie- ro, _|d'u- na na- ve pro-|
w: O fe- li- ce'il Ti-|ren- no che reg- ger nel bel|se- * * * * * * no si gen- til|na- ve _ _ _ suo- le, _|c'hà Pa- li- nu- ro'il|
w: Na- ve si bel- la'e|pu- ra, am- mi- ra la na-|tu- * * * * * * ra per por- tar|il bel _ _ _ pon- do, _|tra i di- lu- vi|
 E2 E2 EF G2 TF3 E | D2 D2 D2 DE FD EF | ED EC DE D4 D2- |[M:3/4] C6 ::[M:6/4] z2 G3 A ^F4 EF | %10
w: ve- de, à cui l'on- da'o- be-|di- sce e'il ven- * * * * *|to _ _ _ _ _ ce- de,|_|non pa- ven- ta, ne|
w: cie- lo, e ti- f'il So- *|le. e Ti- s'il _ _ _ _ _|So- * * * * * * le,|_|vor- tei per ri- ve-|
w: tornar vor- reb- be'il mun- * *|do, tor- nar vor- * reb- * * *|be'il _ _ _ _ _ mun- do,|_|se tal na- ve var-|
 G4 G2 z2 A2 B2 | B2 A4 G2 E^F G2- | G4 FE E4 D2 |"^#" D2 ^FE F^G A2 A2 Bc | B6 A2 FG A2- | %15
w: tur- bin, ne pro|cel- * le e'i _ _|_ na- vi- gan- ti|suoi gui- * * * * da, a le|stel le, e'i _ _|
w: ri- re o- gni|suo gi- * * * ro|_ dis- far- mi in|pian- to? _ _ _ Strug- ger m'in so-|spi- ro, dis- far- mi|
w: cas- se l'Ar- che|ron- * * * * te|_ fo- ra'un ciel sti-|g'e'un an- * * * * ge- lo Ca-|ron- te, fo- ra'un ciel|
"^#" A4 GF TF4 E2 | E6 AG AG AB | cB cB cd ed ed ef | Td4 d2 !fermata!c6 :| %19
w: _ na- vi- gan- ti|suoi gui- * * * * *|da, a _ _ _ _ _ _ le _ _ _|stel- le. _|
w: _ in _ pian- *|to? strug- * * * * *|ger- mi in _ _ _ _ _ so- * * *|spi- ro. _|
w: _ sti- g'e'un an- ge|lo Ca- * * * * *|ron- * * * * * * * * * * *|* te. _|
V:2
 z12 | z12 | z12 | z12 | z12 | z12 | z12 | z12 |[M:3/4] z6 ::[M:6/4] z12 | z12 | z12 |"^(6#)" z12 | %13
 z12 | z12 | z12 | z12 | z12 | z12 :| %19
V:3
"^BC" C6 G,6 | A,2 E,3 F, G,2 G,,4 |"^6" C,6 B,,6 |"^# 6" A,,2 A,4 G,4- G,F, |"^6" E,6 D,6 | %5
"^6" C,4- C,D, E,2 F,4 | G,4 A,2 B,6 | C2 F,4 G,2 G,,4 |[M:3/4] C,6 ::[M:6/4] C6 A,6 | B,6 C6 | %11
"^4" D2 D,4 G,4- G,F, |"^4" E,2 D,4 A,2 A,,4 | ^D,4 E,2 F,2 =D,4 | %14
"^-natural" E,2 E,,4 A,,2 A,3 G, |"^5 6" F,2 E,4 D,6 | C,6 F,4 G,2 | A,4 B,2 C2 F,4 | %18
 G,2 G,,4 !fermata!C,6 :| %19

